!!!SOCIAL_FUNCTION:	songs of personal narratives concerning war
!!!PDT:	1918

Specific Region: Dakotas, Minnesota, Montana, Nebraska
!!!REG: Dakotas and Montana
!!!LING_GROUP: Siouan
!!!LANG: Tone
!!!OTL@ENG: Horses I Seek
!!!ONM: No. 171
**kern
*Imale
*clefF4
*k[b-e-a-d-]
*M3/4
*MM84
4c
4.c
8B-
=2
4A-
2A-
=3
4B-
16c
[8.B-
8.B-]
16A-
=4
4A-
4.A-
8F
=5
4E-
2E-
=6||
*M2/4
2E-
=7||
*M3/4
8E-
8C
2E-
=8||
*M2/4
16C
[8.C
8.C]
16C
=9||
*M3/4
4C
2C
=10||
*M2/4
*MM88
16F
[8.A-
4A-]
=11
4A-
4A-
=12
16c
[8.A-
4A-]
=13
4A-
8A-
8F
=14
16E-
[8.E-
4E-]
=15
4E-
4E-
=16
2E-
=17||
*M3/4
*MM84
8.E-
16C
2E-
=18||
*M2/4
16C
[8.C
8.C]
16C
=19
4C
4C
==
*-
!!!CNT: Native American -- Sioux
!!!MRD: 1911/07//-1914///
!!!OCL: Frances Densmore
!!!YOR1: Teton Sioux Music, Bulletin 61,
!!!YOR2: Bureau of American Ethnology, Smithsonian Institution
!!!PPR: Government Printing Office
!!!PPP: Washington, D.C.
!!!PDT: 1918///
!!!ENC: Craig Stuart Sapp
!!!END: 2002/03/25/
!!!EEV: 2002/03/31/
!!!AGN: War Song/Song of Personal Narrative Concerning War
!!!MPN@@SIO: Shung'ka-lu'zahang
!!!MPN@ENG: Swift Dog
!!!TXO: Teton Sioux
!!!MLC: Standing Rock Reservation, South Dakota, United States of America
!!!ARL: 45.9/-100.7#
!!!catalog: Catalogue No. 584
!!!PPG: 404
!!!EFL: 176/245
!!!VTS: 676538551
